X:1300
T:Walladmoor
A:Wyresdale, Lancashire
B:E and J Winder, 1835-41
L:1/8
M:6/8
N:from a printed tunebook owned by the Winders
O:England
Z:Richard Robinson 
%%TUNEURL: http://www.leeds.ac.uk/music/Info/RRTuneBk/gettune/000005b0.html
%%ID:000005b0
K:A min
c/B/ | \
ABA e2d | cBA  B2E | ABA B2E | ABA B2E | \
ABA e2d | cBA ^GBE | A2B cdB | A3-A2 ::
G | \
cdc g2f | edc BdG  | cdc d2E | cdc d2G | \
cdc g2f | edc Bd^G | A2B cdB | A2a A2 :|
%%newpage
%page 106 missing
%page 107
